X:1
T:114 - A Vinda do Senhor
T:Letra: Jerônimo Gueiros (1870 - 1953)
T:Música: John Robson Sweney (1837-1899)
M:4/4
L:1/8
Q:1/4=110
K:Amaj
V:1
CD | "A"E2 ^DE A2 c3/2B/2 | A2 GA "Bm"B,2 B,C | D2 GF "E"E2 DE | "A"C4z2 CD | E2 ^DE A2 c3/2B/2 | A2 GA "Bm"B,2 B,C | D2 GF "E7"E2 Bc | "A"A6 || c3/2B/2 | "A"A2 B3/2A/2 E2 C3/2E/2 | A2 AB c2 cd | e2 cB A2 Bc | "E"B2- "B"B2- "E"HB2 dd | "A"c2 AA c2 cB | "D"A2 FF HA2 "(D#dim)"GF | "A/E"E2 AA "E7"G2 Bc | "A"A2- "(E7)"A2- "(A)"HA2 |]
w: 1.~Co-mo foi pa-rao céu, Je-sus Cris-tohá de vir Quan-doo som da trom-be-tae-co-ar; Quan-doa voz do ar-can-jo no céu es-tru-gir, Eu i-rei com Je-sus meen-co-trar.     Oh, que di-a faus-to-soes-se di-ahá de ser    Quan-doo som da trom-be-tae-co-ar;__                   Quan-do Cris-to, nas nu-vens, ti-ver de des-cer,    Pa-ra,as-sim, en-tre nós ha-bi-tar!__
w: 2.~Nes-se di-a de gló-ria meu cor-po mor-tal Se-me-lhan-teao de Cris-tohá de ser; E já li-vre da mor-te,e já li-vre do mal, O mi-lê-nio de Cris-tohei de ver.
w: 3.~Eu a-qui, pe-la cruz, pa-rao mun-do mor-ri, Mui-ta dor in-daa-qui so-fre-rei; Mi-nha vi-da com Cris-toem meu Deus es-con-di, E com Cris-toeu a-qui rei-na-rei.
w: 4.~Vem, Je-sus, ó Se-nhor, vem de-pres-sa rei-nar, Vem a paz ea jus-ti-ça tra-zer; Cri-a-ção, po-vo teu, tu-doal-me-jao rai-ar Des-se di-a de gló-riae po-der.
w: 5.~Es-teim-pé-rio do mal, vem, Se-nhor, des-tru-ir, Vem, Es-po-so ce-les-te, rei-nar! Vem, ó Sol da Jus-ti-ça, no mun-do lu-zir; Ó meu Rei, vem meu pran-toes-tan-car!
W: 
W:
W: 1. Como foi para o céu, 
W: Jesus Cristo há de vir
W: Quando o som da trombeta ecoar;
W: Quando a voz do arcanjo 
W: no céu estrugir,
W: Eu irei com Jesus me encotrar.
W: 
W:    (Estribilho)
W:    Oh, que dia faustoso 
W:    esse dia há de ser
W:    Quando o som da trombeta ecoar;               
W:    Quando Cristo, nas nuvens, 
W:    tiver de descer,
W:    Para, assim, entre nós habitar!
W: 
W: 2. Nesse dia de glória 
W: meu corpo mortal
W: Semelhante ao de Cristo há de ser;
W: E já livre da morte, 
W: e já livre do mal,
W: O milênio de Cristo hei de ver.
W: 
W: 
W:
W: 3. Eu aqui, pela cruz, 
W: para o mundo morri,
W: Muita dor inda aqui sofrerei;
W: Minha vida com Cristo 
W: em meu Deus escondi,
W: E com Cristo eu aqui reinarei.
W: 
W: 4. Vem, Jesus, ó Senhor, 
W: vem depressa reinar,
W: Vem a paz e a justiça trazer;
W: Criação, povo teu, 
W: tudo almeja o raiar
W: Desse dia de glória e poder.
W: 
W: 5. Este império do mal, 
W: vem, Senhor, destruir,
W: Vem, Esposo celeste, reinar!
W: Vem, ó Sol da Justiça, 
W: no mundo luzir;
W: Ó meu Rei, 
W: vem meu pranto estancar!
W:         
W: 





